X: 40367
T: Tom Dowd's Favourite
R: reel
M: 4/4
K: Eminor
DGGG GBdB|GBdB AGED|DGGG G2 Bd|~e2 dB ABdB|
DGGG GBdB|GBdB AGED|GGGB d2 (3Bcd|~e2 dB (3ABA GA||
BEEE (3GFE DE|(3GFE DE GGGA|BEEE (3GFE DE|(3Bcd dB (3ABA GA|
BEEE (3GFE DE|(3GFE DE GG G2|AGBG EBGE|DGBG ABdB||

